hosted/assets/icon/widgets/dark-mode/vega-generic-javascript.svg

<svg width="50" height="50" viewBox="0 0 50 50" fill="none" xmlns="http://www.w3.org/2000/svg">
<path d="M17.5 32.5L5 24.5H3L12 10.5L25 4.5L40.5 10.5L46.5 23L39.5 37.5L25 46.5L17.5 32.5Z" fill="#78768B"/>
<path d="M25 2C24.0225 2 23.2211 2.76188 23.16 3.725L13.1263 8.7275C12.8387 8.54063 12.4866 8.44 12.12 8.44C11.103 8.44 10.28 9.26297 10.28 10.28C10.28 10.607 10.3878 10.9053 10.5387 11.1713L3.8975 22.24C3.87953 22.24 3.85797 22.24 3.84 22.24C2.82297 22.24 2 23.063 2 24.08C2 25.097 2.82297 25.92 3.84 25.92C4.16703 25.92 4.46531 25.8122 4.73125 25.6613L15.8 32.3025C15.8 32.3205 15.8 32.342 15.8 32.36C15.8 33.3555 16.5942 34.1677 17.5825 34.2L23.4475 45.1825C23.2714 45.4664 23.16 45.8006 23.16 46.16C23.16 47.177 23.983 48 25 48C26.0063 48 26.8256 47.1914 26.84 46.1888L38.8 39.4613C39.0695 39.6194 39.3858 39.72 39.72 39.72C40.737 39.72 41.56 38.897 41.56 37.88C41.56 37.4703 41.4127 37.093 41.1863 36.7875L46.3613 24.9713C47.2812 24.8706 48 24.1088 48 23.16C48 22.2113 47.2812 21.4494 46.3613 21.3488L42.1063 11.3725C42.3327 11.067 42.48 10.6897 42.48 10.28C42.48 9.26297 41.657 8.44 40.64 8.44C40.2303 8.44 39.853 8.58734 39.5475 8.81375L26.8113 3.58125C26.6855 2.68641 25.9272 2 25 2ZM26.1213 5.30625L38.8288 10.5387C38.9438 11.3581 39.587 11.987 40.41 12.0913L44.6938 22.0675C44.4673 22.373 44.32 22.7503 44.32 23.16C44.32 23.5697 44.4673 23.947 44.6938 24.2525L39.5187 36.0688C38.6059 36.1694 37.8944 36.9169 37.88 37.8512L25.92 44.5788C25.6648 44.4314 25.3702 44.3308 25.0575 44.32L19.1925 33.3375C19.3686 33.0536 19.48 32.7194 19.48 32.36C19.48 31.343 18.657 30.52 17.64 30.52C17.313 30.52 17.0147 30.6278 16.7488 30.7788L5.68 24.1375C5.68 24.1195 5.68 24.098 5.68 24.08C5.68 23.7458 5.57938 23.4295 5.42125 23.16L12.0625 12.12C12.0805 12.12 12.102 12.12 12.12 12.12C13.0975 12.12 13.8989 11.3581 13.96 10.395L23.965 5.36375C24.2597 5.56141 24.6191 5.68 25 5.68C25.4205 5.68 25.8122 5.54344 26.1213 5.30625Z" fill="white"/>
<g clip-path="url(#clip0_2104_3606)">
<path d="M30 47V30H47V47H30ZM40.0984 44.0206C40.1144 44.0538 40.1247 44.0782 40.1375 44.1014C40.3569 44.503 40.6521 44.8369 41.0303 45.0957C41.4844 45.4068 41.9908 45.571 42.5351 45.6301C43.0795 45.6893 43.615 45.6554 44.1383 45.4849C45.1268 45.1628 45.6646 44.4007 45.6512 43.3595C45.6411 42.5858 45.3233 41.9811 44.6903 41.5383C44.3846 41.3244 44.0546 41.1552 43.7154 41.0028C43.3891 40.8562 43.0582 40.7194 42.7374 40.5617C42.5947 40.4915 42.4583 40.3955 42.3429 40.2861C42.0482 40.0067 42.0516 39.3136 42.6409 39.1504C43.0612 39.0339 43.4368 39.1314 43.7251 39.4775C43.8038 39.572 43.8694 39.6776 43.9469 39.7863C44.3563 39.5236 44.7675 39.2597 45.1798 38.995C45.1746 38.9793 45.173 38.9685 45.168 38.9597C44.9034 38.5 44.5567 38.1243 44.0576 37.9184C43.4555 37.67 42.8314 37.6448 42.204 37.7954C41.5859 37.9438 41.1012 38.2838 40.8015 38.8576C40.609 39.2261 40.5547 39.6215 40.583 40.0324C40.6153 40.5022 40.7615 40.9267 41.0691 41.2895C41.3553 41.6271 41.7174 41.8638 42.1115 42.0509C42.5074 42.2389 42.9139 42.4048 43.3103 42.5916C43.4722 42.6679 43.6301 42.761 43.7718 42.8697C44.021 43.0608 44.0969 43.3274 44.0248 43.6273C43.9575 43.908 43.7527 44.0741 43.4901 44.1509C42.831 44.3437 42.2368 44.2288 41.7479 43.7233C41.6179 43.5889 41.512 43.4313 41.3874 43.2749C40.9658 43.5189 40.5358 43.7676 40.0984 44.0206ZM34.457 44.1931C34.7222 44.7454 35.1042 45.1727 35.6622 45.4151C36.39 45.7313 37.1379 45.741 37.8843 45.4881C38.459 45.2935 38.8484 44.8946 39.0635 44.3275C39.1991 43.9701 39.24 43.5966 39.2401 43.2177C39.2411 41.4454 39.2406 39.6732 39.2403 37.901C39.2403 37.8698 39.2367 37.8386 39.2348 37.8076H37.6379V37.9331C37.6379 39.673 37.6385 41.4129 37.6367 43.1529C37.6367 43.2923 37.6282 43.4332 37.608 43.5711C37.575 43.7963 37.4983 44.0121 37.2799 44.1163C36.9387 44.2792 36.5922 44.2806 36.2666 44.0641C36.0993 43.9529 35.9907 43.7863 35.8875 43.6183C35.8454 43.5499 35.8054 43.4803 35.7604 43.4046C35.3254 43.6677 34.8956 43.9279 34.457 44.1931Z" fill="white"/>
<path d="M30 47V30H47V47H30ZM40.0984 44.0206C40.1144 44.0538 40.1247 44.0782 40.1375 44.1014C40.3569 44.503 40.6521 44.8369 41.0303 45.0957C41.4844 45.4068 41.9908 45.571 42.5351 45.6301C43.0795 45.6893 43.615 45.6554 44.1383 45.4849C45.1268 45.1628 45.6646 44.4007 45.6512 43.3595C45.6411 42.5858 45.3233 41.9811 44.6903 41.5383C44.3846 41.3244 44.0546 41.1552 43.7154 41.0028C43.3891 40.8562 43.0582 40.7194 42.7374 40.5617C42.5947 40.4915 42.4583 40.3955 42.3429 40.2861C42.0482 40.0067 42.0516 39.3136 42.6409 39.1504C43.0612 39.0339 43.4368 39.1314 43.7251 39.4775C43.8038 39.572 43.8694 39.6776 43.9469 39.7863C44.3563 39.5236 44.7675 39.2597 45.1798 38.995C45.1746 38.9793 45.173 38.9685 45.168 38.9597C44.9034 38.5 44.5567 38.1243 44.0576 37.9184C43.4555 37.67 42.8314 37.6448 42.204 37.7954C41.5859 37.9438 41.1012 38.2838 40.8015 38.8576C40.609 39.2261 40.5547 39.6215 40.583 40.0324C40.6153 40.5022 40.7615 40.9267 41.0691 41.2895C41.3553 41.6271 41.7174 41.8638 42.1115 42.0509C42.5074 42.2389 42.9139 42.4048 43.3103 42.5916C43.4722 42.6679 43.6301 42.761 43.7718 42.8697C44.021 43.0608 44.0969 43.3274 44.0248 43.6273C43.9575 43.908 43.7527 44.0741 43.4901 44.1509C42.831 44.3437 42.2368 44.2288 41.7479 43.7233C41.6179 43.5889 41.512 43.4313 41.3874 43.2749C40.9658 43.5189 40.5358 43.7676 40.0984 44.0206ZM34.457 44.1931C34.7222 44.7454 35.1042 45.1727 35.6622 45.4151C36.39 45.7313 37.1379 45.741 37.8843 45.4881C38.459 45.2935 38.8484 44.8946 39.0635 44.3275C39.1991 43.9701 39.24 43.5966 39.2401 43.2177C39.2411 41.4454 39.2406 39.6732 39.2403 37.901C39.2403 37.8698 39.2367 37.8386 39.2348 37.8076H37.6379V37.9331C37.6379 39.673 37.6385 41.4129 37.6367 43.1529C37.6367 43.2923 37.6282 43.4332 37.608 43.5711C37.575 43.7963 37.4983 44.0121 37.2799 44.1163C36.9387 44.2792 36.5922 44.2806 36.2666 44.0641C36.0993 43.9529 35.9907 43.7863 35.8875 43.6183C35.8454 43.5499 35.8054 43.4803 35.7604 43.4046C35.3254 43.6677 34.8956 43.9279 34.457 44.1931Z" fill="#C89000"/>
<path d="M40.0981 44.0206C40.5357 43.7676 40.9656 43.5187 41.3872 43.2748C41.5116 43.4311 41.6176 43.5888 41.7477 43.7233C42.2366 44.2288 42.8307 44.3435 43.4899 44.1509C43.7525 44.0741 43.9572 43.908 44.0246 43.6273C44.0965 43.3274 44.0207 43.0609 43.7716 42.8697C43.6297 42.761 43.4718 42.6679 43.31 42.5916C42.9136 42.4046 42.5072 42.2388 42.1113 42.0509C41.7172 41.8638 41.355 41.627 41.0689 41.2895C40.7613 40.9267 40.6151 40.502 40.5828 40.0324C40.5545 39.6216 40.6088 39.226 40.8013 38.8576C41.101 38.2836 41.5856 37.9436 42.2038 37.7954C42.8312 37.6448 43.4553 37.67 44.0574 37.9184C44.5564 38.1243 44.9032 38.5 45.1678 38.9597C45.1728 38.9686 45.1744 38.9793 45.1796 38.995C44.7673 39.2595 44.3562 39.5235 43.9467 39.7863C43.8692 39.6775 43.8036 39.572 43.7249 39.4775C43.4366 39.1313 43.061 39.0339 42.6407 39.1504C42.0514 39.3136 42.0478 40.0067 42.3427 40.2861C42.4581 40.3955 42.5947 40.4915 42.7372 40.5616C43.058 40.7192 43.3889 40.8562 43.7152 41.0028C44.0544 41.1552 44.3842 41.3244 44.6901 41.5383C45.3231 41.9811 45.6409 42.5858 45.6509 43.3595C45.6645 44.4007 45.1267 45.1629 44.1381 45.4848C43.6148 45.6553 43.0793 45.6891 42.5349 45.6301C41.9906 45.571 41.4843 45.4068 41.0301 45.0957C40.6519 44.8368 40.3567 44.503 40.1373 44.1014C40.1245 44.0781 40.1141 44.0537 40.0981 44.0206Z" fill="white"/>
<path d="M34.457 44.1931C34.8954 43.9279 35.3255 43.6677 35.7605 43.4046C35.8054 43.4803 35.8455 43.5499 35.8875 43.6183C35.9909 43.7865 36.0993 43.9529 36.2666 44.0641C36.5921 44.2805 36.9387 44.279 37.28 44.1163C37.4984 44.0121 37.5752 43.7963 37.608 43.5711C37.6282 43.4331 37.6366 43.2923 37.6368 43.1529C37.6386 41.4129 37.6379 39.673 37.6379 37.9331V37.8076H39.2348C39.2367 37.8386 39.2403 37.8698 39.2403 37.901C39.2406 39.6732 39.2409 41.4454 39.2401 43.2177C39.24 43.5966 39.1991 43.9701 39.0635 44.3275C38.8484 44.8946 38.459 45.2935 37.8843 45.4881C37.1379 45.7408 36.3902 45.7311 35.6622 45.4151C35.1042 45.1727 34.7222 44.7456 34.457 44.1931Z" fill="white"/>
</g>
<rect x="29.15" y="29.15" width="18.7" height="18.7" stroke="white" stroke-width="1.7"/>
<defs>
<clipPath id="clip0_2104_3606">
<rect x="30" y="30" width="17" height="17" fill="white"/>
</clipPath>
</defs>
</svg>

<svg width="50" height="50" fill="none" xmlns="http://www.w3.org/2000/svg"><path d="M17.5 32.5L5 24.5H3l9-14 13-6 15.5 6 6 12.5-7 14.5-14.5 9-7.5-14z" fill="#78768B"/><path d="M25 2c-.977 0-1.779.762-1.84 1.725L13.126 8.727a1.85 1.85 0 00-1.006-.287c-1.017 0-1.84.823-1.84 1.84 0 .327.108.625.259.891L3.898 22.24H3.84a1.839 1.839 0 100 3.68c.327 0 .625-.108.891-.259L15.8 32.303v.057c0 .995.794 1.808 1.782 1.84l5.866 10.982a1.854 1.854 0 00-.288.978 1.839 1.839 0 003.68.029L38.8 39.46c.27.158.586.259.92.259 1.017 0 1.84-.823 1.84-1.84 0-.41-.147-.787-.374-1.093l5.175-11.816c.92-.1 1.639-.862 1.639-1.811s-.719-1.71-1.639-1.811l-4.255-9.976c.227-.306.374-.683.374-1.093 0-1.017-.823-1.84-1.84-1.84-.41 0-.787.147-1.093.374L26.811 3.58A1.83 1.83 0 0025 2zm1.121 3.306L38.83 10.54c.115.82.758 1.448 1.581 1.552l4.284 9.976a1.838 1.838 0 00-.374 1.093c0 .41.147.787.374 1.093L39.52 36.07c-.913.1-1.625.848-1.639 1.782L25.92 44.58a1.862 1.862 0 00-.863-.259l-5.864-10.983c.176-.283.287-.618.287-.977 0-1.017-.823-1.84-1.84-1.84-.327 0-.625.108-.891.259L5.68 24.137v-.057c0-.334-.1-.65-.259-.92l6.641-11.04h.058c.978 0 1.779-.762 1.84-1.725l10.005-5.031a1.862 1.862 0 002.156-.058z" fill="#fff"/><g clip-path="url(#clip0_2104_3606)"><path d="M30 47V30h17v17H30zm10.098-2.98c.016.034.027.058.04.081.219.402.514.736.892.995.454.31.96.475 1.505.534a3.78 3.78 0 001.603-.145c.989-.322 1.527-1.084 1.513-2.126-.01-.773-.328-1.378-.96-1.82a5.902 5.902 0 00-.976-.536c-.326-.147-.657-.284-.978-.441a1.625 1.625 0 01-.394-.276c-.295-.28-.291-.972.298-1.136.42-.116.796-.019 1.084.328.079.094.144.2.222.308l1.233-.791c-.005-.016-.007-.026-.012-.035-.265-.46-.611-.836-1.11-1.042-.602-.248-1.227-.273-1.854-.123-.618.149-1.103.489-1.403 1.063-.192.368-.246.764-.218 1.174.032.47.178.895.486 1.258.286.337.648.574 1.042.76.396.189.803.355 1.2.542.161.076.32.169.46.278.25.19.326.457.254.757-.067.281-.272.447-.535.524-.659.193-1.253.078-1.742-.428-.13-.134-.236-.292-.36-.448l-1.29.746zm-5.641.173c.265.552.647.98 1.205 1.222.728.316 1.476.326 2.222.073.575-.194.964-.593 1.18-1.16.135-.358.176-.731.176-1.11V37.9c0-.031-.003-.062-.005-.093h-1.597v.125l-.001 5.22c0 .14-.009.28-.029.418-.033.225-.11.441-.328.545-.341.163-.688.165-1.013-.052-.168-.111-.276-.278-.38-.446-.042-.068-.082-.138-.127-.213l-1.303.788z" fill="#fff"/><path d="M30 47V30h17v17H30zm10.098-2.98c.016.034.027.058.04.081.219.402.514.736.892.995.454.31.96.475 1.505.534a3.78 3.78 0 001.603-.145c.989-.322 1.527-1.084 1.513-2.126-.01-.773-.328-1.378-.96-1.82a5.902 5.902 0 00-.976-.536c-.326-.147-.657-.284-.978-.441a1.625 1.625 0 01-.394-.276c-.295-.28-.291-.972.298-1.136.42-.116.796-.019 1.084.328.079.094.144.2.222.308l1.233-.791c-.005-.016-.007-.026-.012-.035-.265-.46-.611-.836-1.11-1.042-.602-.248-1.227-.273-1.854-.123-.618.149-1.103.489-1.403 1.063-.192.368-.246.764-.218 1.174.032.47.178.895.486 1.258.286.337.648.574 1.042.76.396.189.803.355 1.2.542.161.076.32.169.46.278.25.19.326.457.254.757-.067.281-.272.447-.535.524-.659.193-1.253.078-1.742-.428-.13-.134-.236-.292-.36-.448l-1.29.746zm-5.641.173c.265.552.647.98 1.205 1.222.728.316 1.476.326 2.222.073.575-.194.964-.593 1.18-1.16.135-.358.176-.731.176-1.11V37.9c0-.031-.003-.062-.005-.093h-1.597v.125l-.001 5.22c0 .14-.009.28-.029.418-.033.225-.11.441-.328.545-.341.163-.688.165-1.013-.052-.168-.111-.276-.278-.38-.446-.042-.068-.082-.138-.127-.213l-1.303.788z" fill="#C89000"/><path d="M40.098 44.02l1.29-.745c.124.156.23.314.36.448.489.506 1.083.62 1.742.428.262-.077.467-.243.535-.524.072-.3-.004-.566-.253-.757a2.553 2.553 0 00-.462-.278c-.396-.187-.803-.353-1.199-.541-.394-.187-.756-.424-1.042-.762-.308-.362-.454-.787-.486-1.257-.029-.41.026-.806.218-1.174.3-.574.785-.914 1.403-1.063.627-.15 1.251-.125 1.853.123.5.206.846.582 1.11 1.042.006.009.007.02.013.035l-1.233.791c-.078-.108-.143-.214-.222-.309-.288-.346-.664-.443-1.084-.327-.59.164-.593.857-.298 1.136.115.11.252.206.394.276.321.157.652.294.978.44.34.153.67.322.975.536.633.443.95 1.048.96 1.822.014 1.04-.523 1.803-1.512 2.125a3.791 3.791 0 01-1.603.145 3.226 3.226 0 01-1.505-.534 2.828 2.828 0 01-.893-.995c-.013-.023-.023-.047-.039-.08zm-5.641.173l1.303-.788.128.213c.103.168.211.335.379.446.325.217.672.215 1.013.052.218-.104.295-.32.328-.545.02-.138.029-.279.029-.418.002-1.74 0-3.48 0-5.22v-.125h1.598c.002.03.005.062.005.093v5.317c0 .379-.04.752-.177 1.11-.215.567-.604.965-1.179 1.16-.746.253-1.494.243-2.222-.073-.558-.242-.94-.67-1.205-1.222z" fill="#fff"/></g><path stroke="#fff" stroke-width="1.7" d="M29.15 29.15h18.7v18.7h-18.7z"/><defs><clipPath id="clip0_2104_3606"><path fill="#fff" d="M30 30h17v17H30z"/></clipPath></defs></svg>
